icons/lines/sticker.svg

<svg xmlns="http://www.w3.org/2000/svg" width="24" height="24" viewBox="0 0 24 24" fill="none" stroke="currentColor" stroke-width="2" stroke-linecap="round" stroke-linejoin="round" >
  <path d="M21.9305 12.86C21.9105 13.05 21.8805 13.23 21.8305 13.41C20.7905 12.53 19.4405 12 17.9705 12C14.6605 12 11.9705 14.69 11.9705 18C11.9705 19.47 12.5005 20.82 13.3805 21.86C13.2005 21.91 13.0205 21.94 12.8305 21.96C11.9805 22.04 11.1105 22 10.2105 21.85C6.10048 21.15 2.79048 17.82 2.11048 13.7C0.980478 6.85002 6.82048 1.01002 13.6705 2.14002C17.7905 2.82002 21.1205 6.13002 21.8205 10.24C21.9705 11.14 22.0105 12.01 21.9305 12.86Z"/>
  <path d="M21.8297 13.41C21.6897 13.9 21.4297 14.34 21.0597 14.71L14.6797 21.09C14.3097 21.46 13.8697 21.72 13.3797 21.86C12.4997 20.82 11.9697 19.47 11.9697 18C11.9697 14.69 14.6597 12 17.9697 12C19.4397 12 20.7897 12.53 21.8297 13.41Z"/>
  </svg>

<svg xmlns="http://www.w3.org/2000/svg" width="24" height="24" viewBox="0 0 24 24" fill="none" stroke="currentColor" stroke-width="2" stroke-linecap="round" stroke-linejoin="round">
  <path d="M21.83 13.41a3 3 0 0 1-.77 1.3l-6.38 6.38a3 3 0 0 1-1.3.77 6 6 0 0 1 8.45-8.45" />
  <path d="M21.93 12.86a3.3 3.3 0 0 1-.1.55 6 6 0 0 0-8.45 8.45 3.3 3.3 0 0 1-.55.1 10 10 0 0 1-2.62-.11c-4.11-.7-7.42-4.03-8.1-8.15A10 10 0 0 1 13.67 2.14c4.12.68 7.45 3.99 8.15 8.1a10 10 0 0 1 .11 2.62" />
</svg>
